X:1
T:Title
%%score 1 { 2 | 3 }
L:1/8
Q:1/4=110
M:4/4
K:G
V:1 treble nm="Grand Piano, Staff"
V:2 bass nm="Grand Piano, Staff-1"
V:3 bass 
V:1
 [DG]2 [DG]2 [DF]2 [B,G]2 | [DG]2 [EA]2 [DA]2 [DB]2 | [DG]2 [Ec]2 [Fc]2 [GB]2 | %3
w: By~Thomas~Tallis * * *|||
 [DB]2 [EA]2 [DA]2 [DG]2 | [Gd]2 [Ec]2 [DA]2 [DB]2 | [DB]2 [EA]2 [FA]2 G2 | %6
w: |||
[Q:1/4=105] [G,D]2 E2 [DF]2 [B,G]2 |[Q:1/4=100] [DB]2 [CA]2 [A,A]2 [B,G]2- | [B,G]2 z2 z4 |] %9
w: |||
V:2
 B,2 A,2 A,2 [E,G,]2 | G,2 G,2 F,2 G,2 | G,2 A,2 A,2 B,2 | G,2 [G,C]2 [F,C]2 [G,B,]2 | %4
 [G,B,]2 A,2 [F,A,]2 G,2 | D2 C2 A,2 B,2 | B,2 A,2 A,2 [E,G,]2 | G,2 E,2 F,2 G,2- | G,2 z2 z4 |] %9
V:3
 G,,2 D,2 D,2 z2 | B,,2 C,2 D,2 G,,2 | B,,2 A,,2 A,,2 G,,2 | z8 | z8 | G,,2 C,2 D,2 G,,2 | %6
 B,,2 C,2 D,2 z2 | B,,2 C,2 D,2 G,,2- | G,,2 z2 z4 |] %9

